X:31
T:Ballechin Rant
R:Reel
C:William MacLeish
B:The Athole Collection
M:C|
L:1/8
K:D
A|F2DF G2EG|F2DF Afec|dD D/D/D G2EG|FABc dcdA|
F2DF G2EG|F2DF Afec|dAFA G2EG|FABc d3||
g|fddc d2Ag|fddB ceeg|fddc d2AF|GBAF Addg|fddc d2Ag|fddB ceeg|
fdcd BgAf|GBAF Add||

